X:270
T:Cripple Creek
M:4/4
L:1/8
R:Reel
K:A
fg|:agaf ecAc|defd e2 fg|abaf efed|cABc A2 fg|
|agaf ecAc|defd e2 e2|cBAc BAFA|1 ECEF A2 fg:|2 ECEF A2A2|
|:c2 cA BcAB|cBcA E2 AB|cBcA BAFD|1 ECEF A2 AB:|2 ECEF A2 fg|
